X:1
T:Hal en bergenkermis
C:Trad.
O:Vlaanderen
A:Minderhout
Z:Bart Vanhaverbeke <bvanhaverbeke@unicall.be>
P:(Voorspel AB) x3
L:1/8
M:2/4
K:C
P:Voorspel
EE EE/F/ | ED CG | A2 B2 | c2 z2 |]
P:A
EE EE/F/ | ED C2 | GG GG/A/ | GE C2 | "sneller"G3 c | B3 d | A2 B2 |1 AG G2 :|2 cc c z |]
P:B
GG c>A | AG G2 | FF A>F | FE E2 | GG cB/c/ | dA A2 |1 BB AB | AG G z :|2 d>c Bd | c2 z2 |]
